X:1
T:Si fe cristallo
T:Si fe cristallo
T:Orlande de Lassus
C:Orlande de Lassus
%%score [ 1 2 [ 3 4 ] ]
L:1/8
Q:1/4=80
M:2/2
K:C
V:1 treble nm="Superius" snm="S"
V:2 treble nm="Altus" snm="A"
V:3 treble-8 nm="Tenor 1" snm="T 1"
V:4 treble-8 nm="Tenor 2" snm="T 2"
V:1
 d4 e2 e2 | d2 B2 c4 | c4 d2 e2- | ed d4 c2 | d8 | z4 z2 g2 | f2 e2 d2 c2 | B2 A2 e2 f2 | %8
w: Si fe cri-|stal- lo'il fiu-|me e'n ta-|* le sta- *|to,|scor-|se fin giu nel|fon- d'il chia- ro|
 e2 c2 z2 c2 | B3 B B2 c2 | B4 e2 d2- | d2 c2 A4- | A4 ^F2 G2- | GG G2 A2 G2 | _B6 B2 | A2 F2 f4 | %16
w: fo- co e'a-|dor- no di fi-|ner al d'in|_ ve- ce|_ d'her- be'a-|* do- ro con le|nin- phe'il|nuo- vo so-|
 e4 z4 | B4 c2 c2 | c4 A4 | z2 d2 B3 B | cc c2 A4 | e2 dB cABc | AB G2 EedB | cd G2 c2 BG | %24
w: le|io'l si ch'il|nid- di,|e'l san l'on-|d'e la ri- va|ch'an- no da in- d'in qua con-|ten- to'e vo- ce, ch'an- no da|in- d'in qua con- ten- to|
 ABce dBcd | G2 G2 AB cB | A2 G4 F2 | G8 |] %28
w: vo- ce, ch'an- no da in- d'in qua|con- ten- * * * *|to'e vo- *|ce.|
V:2
 z2 G2 G4- | G2 G2 A2 A2 | G2 A2 B2 c2 | A8 | ^F4 z2 z A- | A G2 F2 E2 D | DCGG G2 EA | %7
w: Si fe|_ cri- stal- lo'il|fiu- m'e'n ta- le|sta-|to, scor-|* se fin giu nel|fon- d'il chia- ro fo- co, scor-|
 GGFF G2 A2 | G2 G2 C4 | D2 G2 G3 G | G2 G2 G2 ^F2 | G4 F2 D2- | DC C2 D2 D2- | DD D2 F2 E2 | %14
w: se fin giu nel fon- d'il|chia- ro fo-|co e'a- dor- no|di fi- ner al-|d'in ve- *|* * ce d'her- be'a-|* do- ro con le|
 F6 G2 | C2 A,2 D4 | G4 z4 | z2 D2 E2 G2 | A4 ^F4 | z2 ^F2 G2 D2 | A2 G2 F2 C2- | CcBG AEGG | %22
w: nin- phe'il|nuo- vo so-|le|io'l si ch'il|nid- di,|e'l san l'on-|d'e la ri- va|_ ch'an- no da in- d'in qua,- ch'an-|
 FDEF G2 z G | FD E3 FGG | FDE>F G2 z2 | z CB,C A,G,G,G | F2 D2 D4 | D8 |] %28
w: no da in- d'in qua, ch'an-|no da in- d'in qua, ch'an-|no da in- di qua,|ch'an- no da in- d'in qua con-|ten- to'e vo-|ce.|
V:3
 z2 B2 B2 c2 | B2 d2 f2 ed | e2 e2 g4 | f4 e4 | d2 a2 g2 f2 |"^b" e2 d2 c2 B2 | A2 G c2 Bce- | %7
w: Si fe cri-|stal- lo'il fiu- * *|me e'n ta-|le sta-|to, scor- se fin|giu nel fon- d'il|chia- ro fo- * co, scor-|
 e d2 c c2 c2- | c2 e3 efe | g2 d2 z2 e2 | e2 d2 c2 A2 | d2 e2 d2 f2 | e4 d2 B2- | BB B2 c2 c2 | %14
w: * se fin giu nel-|_ fon- do'il chia- ro|fo- co e'a-|dor- no di- fi-|ner al d'in ve-|ce d'her- be'a-|* do- ro con le|
 d2 d2 dc de | f2 c4 B2 | c4 z2 d2- | d2 g2 g2 e2- | e2 e2 z2 d2 | a3 a dd g2 | e4 z2 f2 | %21
w: nin- phe'il nuo- * * *|vo so- *|le io'l|_ si ch'il nid-|* di, e'l|san l'on- d'e la ri-|va ch'an-|
 ecde Acde | d2 c2 c2 BG | AB c3 cde | d2 c2 z gfd | eedg fdee | cdBB A4 | G8 |] %28
w: no da in- d'in qua con- ten- to'e|vo- ce, ch'an- no da|in- d'in qua con- ten- to|vo- ce, ch'an- no da|in- d'in qua, ch'an- no da in- d'in|qua con- ten- to vo-|ce.|
V:4
 z2 G2 E2 C2 | G2 G2 FG AB | c2 A2 G2 E2 | F3 G A4 | D4 z2 d2 | c2 _B2 A2 G2 | DFCC G2 AA | %7
w: Si fe cri-|stal- lo'il fiu- * * *|me e'n ta- le|sta- * *|to, scor-|se fin giu nel|fon- d'il chia- ro fo- co, scor-|
 EGDF CCFF | c3 B A4 | G2 G2 E3 E | E2 G2 C2 D2 | B,2 C2 D4 | A4 z2 G2- | GG G2 F2 c2 | _B6 G2 | %15
w: se fin giu nel fon- de'il chia- ro|fo- * co|e'a- dor- no di|fi- ner al- d'in|ve- ce d'her-|be a-|* do- ro con le|nin- phe'il|
 F2 F2 D4 | C4 z4 | G4 c2 c2 | A4 D4 | z2 D2 G3 G | AA c2 F4 | z4 z AGE | FG C4 z2 |"^#" z4 A2 GE | %24
w: nuo- ve so-|le|io'il si ch'il|nid- di,|e'l l'on- de|e la ri- va|ch'an- no da|in- d'in qua|ch'an- no da|
 FGCc BGAB | cCGE FGCE | F2 G2 D4 | G,8 |] %28
w: in- d'in qua, ch'an- no da in- d'in|qua, ch'an- no da in- d'in que con|ten- to vo-|ce.|

